X:280
L:1/8
M:2/2
K:A
 A2 GA FAEc | BEcE dEcB | A2 GA FAEc | BEGB AdcB | A2 GA FAED | CEAc dcdf | ece=g fdfa |1 
 ^gbag afec :|2 ^gbeg aefg |: aA A2 eAcA | dcBA GBEg | aA A2 eAcA | GABc defg | a2 gb aece | 
 fdBA GBed | ceAc dfBa |1 gbeg aefg :|2 gbeg afec ||

